packages/gestalt/src/icons/minimize.svg

<svg width="24" height="24" xmlns="http://www.w3.org/2000/svg"><path fill="#aeaeae" d="M1 9.75c0-.69.56-1.25 1.25-1.25h4.482L1.366 3.134a1.25 1.25 0 0 1 1.768-1.768L8.5 6.732V2.25a1.25 1.25 0 0 1 2.5 0V11H2.25C1.56 11 1 10.44 1 9.75zM14.25 23c-.69 0-1.25-.56-1.25-1.25V13h8.75a1.25 1.25 0 0 1 0 2.5h-4.482l5.366 5.366a1.25 1.25 0 0 1-1.768 1.768L15.5 17.268v4.482c0 .69-.56 1.25-1.25 1.25z"/></svg>

<svg width="24" height="24" viewBox="0 0 24 24" xmlns="http://www.w3.org/2000/svg"><path fill="#aeaeae" d="M1.00,9.75 C1.00,9.06 1.56,8.50 2.25,8.50 L6.73,8.50 L1.37,3.13 C0.88,2.65 0.88,1.85 1.37,1.37 C1.85,0.88 2.65,0.88 3.13,1.37 L8.50,6.73 L8.50,2.25 C8.50,1.56 9.06,1.00 9.75,1.00 C10.44,1.00 11.00,1.56 11.00,2.25 L11.00,11.00 L2.25,11.00 C1.56,11.00 1.00,10.44 1.00,9.75 Z M14.25,23.00 C13.56,23.00 13.00,22.44 13.00,21.75 L13.00,13.00 L21.75,13.00 C22.44,13.00 23.00,13.56 23.00,14.25 C23.00,14.94 22.44,15.50 21.75,15.50 L17.27,15.50 L22.63,20.87 C23.12,21.35 23.12,22.15 22.63,22.63 C22.15,23.12 21.35,23.12 20.87,22.63 L15.50,17.27 L15.50,21.75 C15.50,22.44 14.94,23.00 14.25,23.00 Z"/></svg>
